X: 1
T: Willie Coleman's
R: jig
M: 6/8
L: 1/8
K: Gmaj
B2G AGE|GED G2d|edB dgb|age dBA|
B2G AGE|GED G2d|edB dBA|BGG G3:|
~g3 edB|dgb age|~g3 edB|GBd e3|
~g3 edB|dgb age|dBd gdB|AGF G3:|


Tune 476	Setting 23887

